icons/svg/shopping/florist.svg

<?xml version="1.0" encoding="UTF-8" standalone="no"?>
<!-- Created with Inkscape (http://www.inkscape.org/) -->

<svg
   xmlns:dc="http://purl.org/dc/elements/1.1/"
   xmlns:cc="http://creativecommons.org/ns#"
   xmlns:rdf="http://www.w3.org/1999/02/22-rdf-syntax-ns#"
   xmlns:svg="http://www.w3.org/2000/svg"
   xmlns="http://www.w3.org/2000/svg"
   xmlns:sodipodi="http://sodipodi.sourceforge.net/DTD/sodipodi-0.dtd"
   xmlns:inkscape="http://www.inkscape.org/namespaces/inkscape"
   version="1.0"
   width="580"
   height="580"
   id="svg2"
   sodipodi:version="0.32"
   inkscape:version="0.47 r22583"
   sodipodi:docname="shopping_florist.svg"
   inkscape:output_extension="org.inkscape.output.svg.inkscape">
  <metadata
     id="metadata2975">
    <rdf:RDF>
      <cc:Work
         rdf:about="">
        <dc:format>image/svg+xml</dc:format>
        <dc:type
           rdf:resource="http://purl.org/dc/dcmitype/StillImage" />
        <dc:title></dc:title>
      </cc:Work>
    </rdf:RDF>
  </metadata>
  <sodipodi:namedview
     inkscape:window-height="997"
     inkscape:window-width="1280"
     inkscape:pageshadow="2"
     inkscape:pageopacity="0.0"
     guidetolerance="10.0"
     gridtolerance="10.0"
     objecttolerance="10.0"
     borderopacity="1.0"
     bordercolor="#666666"
     pagecolor="#ffffff"
     id="base"
     inkscape:zoom="0.081465518"
     inkscape:cx="1518.1209"
     inkscape:cy="-942.46985"
     inkscape:window-x="0"
     inkscape:window-y="0"
     inkscape:current-layer="svg2"
     showgrid="false"
     inkscape:window-maximized="1" />
  <defs
     id="defs4">
    <inkscape:perspective
       sodipodi:type="inkscape:persp3d"
       inkscape:vp_x="0 : 290 : 1"
       inkscape:vp_y="0 : 1000 : 0"
       inkscape:vp_z="580 : 290 : 1"
       inkscape:persp3d-origin="290 : 193.33333 : 1"
       id="perspective2441" />
    <inkscape:perspective
       id="perspective2466"
       inkscape:persp3d-origin="372.04724 : 350.78739 : 1"
       inkscape:vp_z="744.09448 : 526.18109 : 1"
       inkscape:vp_y="0 : 1000 : 0"
       inkscape:vp_x="0 : 526.18109 : 1"
       sodipodi:type="inkscape:persp3d" />
    <inkscape:perspective
       id="perspective3333"
       inkscape:persp3d-origin="372.04724 : 350.78739 : 1"
       inkscape:vp_z="744.09448 : 526.18109 : 1"
       inkscape:vp_y="0 : 1000 : 0"
       inkscape:vp_x="0 : 526.18109 : 1"
       sodipodi:type="inkscape:persp3d" />
    <inkscape:perspective
       id="perspective3401"
       inkscape:persp3d-origin="372.04724 : 350.78739 : 1"
       inkscape:vp_z="744.09448 : 526.18109 : 1"
       inkscape:vp_y="0 : 1000 : 0"
       inkscape:vp_x="0 : 526.18109 : 1"
       sodipodi:type="inkscape:persp3d" />
    <inkscape:perspective
       id="perspective3464"
       inkscape:persp3d-origin="372.04724 : 350.78739 : 1"
       inkscape:vp_z="744.09448 : 526.18109 : 1"
       inkscape:vp_y="0 : 1000 : 0"
       inkscape:vp_x="0 : 526.18109 : 1"
       sodipodi:type="inkscape:persp3d" />
    <inkscape:perspective
       id="perspective3581"
       inkscape:persp3d-origin="225 : 150 : 1"
       inkscape:vp_z="450 : 225 : 1"
       inkscape:vp_y="0 : 1000 : 0"
       inkscape:vp_x="0 : 225 : 1"
       sodipodi:type="inkscape:persp3d" />
    <inkscape:perspective
       id="perspective4312"
       inkscape:persp3d-origin="225 : 150 : 1"
       inkscape:vp_z="450 : 225 : 1"
       inkscape:vp_y="0 : 1000 : 0"
       inkscape:vp_x="0 : 225 : 1"
       sodipodi:type="inkscape:persp3d" />
    <inkscape:perspective
       id="perspective8860"
       inkscape:persp3d-origin="372.04724 : 350.78739 : 1"
       inkscape:vp_z="744.09448 : 526.18109 : 1"
       inkscape:vp_y="0 : 1000 : 0"
       inkscape:vp_x="0 : 526.18109 : 1"
       sodipodi:type="inkscape:persp3d" />
    <inkscape:perspective
       id="perspective8887"
       inkscape:persp3d-origin="372.04724 : 350.78739 : 1"
       inkscape:vp_z="744.09448 : 526.18109 : 1"
       inkscape:vp_y="0 : 1000 : 0"
       inkscape:vp_x="0 : 526.18109 : 1"
       sodipodi:type="inkscape:persp3d" />
    <inkscape:perspective
       sodipodi:type="inkscape:persp3d"
       inkscape:vp_x="0 : 16 : 1"
       inkscape:vp_y="0 : 1000 : 0"
       inkscape:vp_z="32 : 16 : 1"
       inkscape:persp3d-origin="16 : 10.666667 : 1"
       id="perspective4904" />
    <inkscape:perspective
       sodipodi:type="inkscape:persp3d"
       inkscape:vp_x="0 : 6 : 1"
       inkscape:vp_y="0 : 1000 : 0"
       inkscape:vp_z="12 : 6 : 1"
       inkscape:persp3d-origin="6 : 4 : 1"
       id="perspective4668" />
    <inkscape:perspective
       sodipodi:type="inkscape:persp3d"
       inkscape:vp_x="0 : 526.18109 : 1"
       inkscape:vp_y="0 : 1000 : 0"
       inkscape:vp_z="744.09448 : 526.18109 : 1"
       inkscape:persp3d-origin="372.04724 : 350.78739 : 1"
       id="perspective4471" />
    <symbol
       id="symbol-university"
       viewBox="244.5 110 489 219.9">
      <path
         d="M79,43l57,119c0,0,21-96,104-96s124,106,124,106l43-133l82-17L0,17L79,43z"
         id="path4460" />
      <path
         fill="none"
         stroke="#000000"
         stroke-width="20"
         d="M94,176l-21,39"
         id="path4462" />
      <path
         d="M300,19c0,10.5-22.6,19-50.5,19S199,29.5,199,19s22.6-19,50.5-19S300,8.5,300,19z"
         id="path4464" />
      <path
         ill="none"
         stroke="#000000"
         stroke-width="20"
         d="M112,216l-16-38L64,88c0,0-9-8-4-35s16-24,16-24"
         id="path4466" />
    </symbol>
    <inkscape:perspective
       sodipodi:type="inkscape:persp3d"
       inkscape:vp_x="0 : 30 : 1"
       inkscape:vp_y="0 : 1000 : 0"
       inkscape:vp_z="60 : 30 : 1"
       inkscape:persp3d-origin="30 : 20 : 1"
       id="perspective3452" />
    <inkscape:perspective
       id="perspective9479"
       inkscape:persp3d-origin="290 : 193.33333 : 1"
       inkscape:vp_z="580 : 290 : 1"
       inkscape:vp_y="0 : 1000 : 0"
       inkscape:vp_x="0 : 290 : 1"
       sodipodi:type="inkscape:persp3d" />
    <inkscape:perspective
       id="perspective9690"
       inkscape:persp3d-origin="372.04724 : 350.78739 : 1"
       inkscape:vp_z="744.09448 : 526.18109 : 1"
       inkscape:vp_y="0 : 1000 : 0"
       inkscape:vp_x="0 : 526.18109 : 1"
       sodipodi:type="inkscape:persp3d" />
    <inkscape:perspective
       sodipodi:type="inkscape:persp3d"
       inkscape:vp_x="0 : 290 : 1"
       inkscape:vp_y="0 : 1000 : 0"
       inkscape:vp_z="580 : 290 : 1"
       inkscape:persp3d-origin="290 : 193.33333 : 1"
       id="perspective9819" />
    <inkscape:perspective
       id="perspective9817"
       inkscape:persp3d-origin="30 : 20 : 1"
       inkscape:vp_z="60 : 30 : 1"
       inkscape:vp_y="0 : 1000 : 0"
       inkscape:vp_x="0 : 30 : 1"
       sodipodi:type="inkscape:persp3d" />
    <symbol
       viewBox="244.5 110 489 219.9"
       id="symbol9807">
      <path
         id="path9809"
         d="M79,43l57,119c0,0,21-96,104-96s124,106,124,106l43-133l82-17L0,17L79,43z" />
      <path
         id="path9811"
         d="M94,176l-21,39"
         stroke-width="20"
         stroke="#000000"
         fill="none" />
      <path
         id="path9813"
         d="M300,19c0,10.5-22.6,19-50.5,19S199,29.5,199,19s22.6-19,50.5-19S300,8.5,300,19z" />
      <path
         id="path9815"
         d="M112,216l-16-38L64,88c0,0-9-8-4-35s16-24,16-24"
         stroke-width="20"
         stroke="#000000"
         ill="none" />
    </symbol>
    <inkscape:perspective
       id="perspective9805"
       inkscape:persp3d-origin="372.04724 : 350.78739 : 1"
       inkscape:vp_z="744.09448 : 526.18109 : 1"
       inkscape:vp_y="0 : 1000 : 0"
       inkscape:vp_x="0 : 526.18109 : 1"
       sodipodi:type="inkscape:persp3d" />
    <inkscape:perspective
       id="perspective9803"
       inkscape:persp3d-origin="6 : 4 : 1"
       inkscape:vp_z="12 : 6 : 1"
       inkscape:vp_y="0 : 1000 : 0"
       inkscape:vp_x="0 : 6 : 1"
       sodipodi:type="inkscape:persp3d" />
    <inkscape:perspective
       id="perspective9801"
       inkscape:persp3d-origin="16 : 10.666667 : 1"
       inkscape:vp_z="32 : 16 : 1"
       inkscape:vp_y="0 : 1000 : 0"
       inkscape:vp_x="0 : 16 : 1"
       sodipodi:type="inkscape:persp3d" />
    <inkscape:perspective
       sodipodi:type="inkscape:persp3d"
       inkscape:vp_x="0 : 526.18109 : 1"
       inkscape:vp_y="0 : 1000 : 0"
       inkscape:vp_z="744.09448 : 526.18109 : 1"
       inkscape:persp3d-origin="372.04724 : 350.78739 : 1"
       id="perspective9799" />
    <inkscape:perspective
       sodipodi:type="inkscape:persp3d"
       inkscape:vp_x="0 : 526.18109 : 1"
       inkscape:vp_y="0 : 1000 : 0"
       inkscape:vp_z="744.09448 : 526.18109 : 1"
       inkscape:persp3d-origin="372.04724 : 350.78739 : 1"
       id="perspective9797" />
    <inkscape:perspective
       sodipodi:type="inkscape:persp3d"
       inkscape:vp_x="0 : 225 : 1"
       inkscape:vp_y="0 : 1000 : 0"
       inkscape:vp_z="450 : 225 : 1"
       inkscape:persp3d-origin="225 : 150 : 1"
       id="perspective9795" />
    <inkscape:perspective
       sodipodi:type="inkscape:persp3d"
       inkscape:vp_x="0 : 225 : 1"
       inkscape:vp_y="0 : 1000 : 0"
       inkscape:vp_z="450 : 225 : 1"
       inkscape:persp3d-origin="225 : 150 : 1"
       id="perspective9793" />
    <inkscape:perspective
       sodipodi:type="inkscape:persp3d"
       inkscape:vp_x="0 : 526.18109 : 1"
       inkscape:vp_y="0 : 1000 : 0"
       inkscape:vp_z="744.09448 : 526.18109 : 1"
       inkscape:persp3d-origin="372.04724 : 350.78739 : 1"
       id="perspective9791" />
    <inkscape:perspective
       sodipodi:type="inkscape:persp3d"
       inkscape:vp_x="0 : 526.18109 : 1"
       inkscape:vp_y="0 : 1000 : 0"
       inkscape:vp_z="744.09448 : 526.18109 : 1"
       inkscape:persp3d-origin="372.04724 : 350.78739 : 1"
       id="perspective9789" />
    <inkscape:perspective
       sodipodi:type="inkscape:persp3d"
       inkscape:vp_x="0 : 526.18109 : 1"
       inkscape:vp_y="0 : 1000 : 0"
       inkscape:vp_z="744.09448 : 526.18109 : 1"
       inkscape:persp3d-origin="372.04724 : 350.78739 : 1"
       id="perspective9787" />
    <inkscape:perspective
       sodipodi:type="inkscape:persp3d"
       inkscape:vp_x="0 : 526.18109 : 1"
       inkscape:vp_y="0 : 1000 : 0"
       inkscape:vp_z="744.09448 : 526.18109 : 1"
       inkscape:persp3d-origin="372.04724 : 350.78739 : 1"
       id="perspective9785" />
    <inkscape:perspective
       id="perspective9783"
       inkscape:persp3d-origin="290 : 193.33333 : 1"
       inkscape:vp_z="580 : 290 : 1"
       inkscape:vp_y="0 : 1000 : 0"
       inkscape:vp_x="0 : 290 : 1"
       sodipodi:type="inkscape:persp3d" />
    <defs
       id="defs48974" />
    <sodipodi:namedview
       pagecolor="#ffffff"
       inkscape:zoom="0.61399264"
       inkscape:window-y="26"
       inkscape:window-x="0"
       inkscape:window-width="1012"
       inkscape:window-height="739"
       inkscape:pageshadow="2"
       inkscape:pageopacity="0.0"
       inkscape:cy="250.37448"
       inkscape:cx="475.26707"
       id="namedview4258"
       borderopacity="1.0"
       bordercolor="#666666" />
    <inkscape:perspective
       id="perspective11483"
       inkscape:persp3d-origin="100 : 66.666667 : 1"
       inkscape:vp_z="200 : 100 : 1"
       inkscape:vp_y="0 : 1000 : 0"
       inkscape:vp_x="0 : 100 : 1"
       sodipodi:type="inkscape:persp3d" />
    <linearGradient
       id="linearGradient2936">
      <stop
         style="stop-color:#8acf6b;stop-opacity:1.0000000;"
         offset="0.0000000"
         id="stop2938" />
      <stop
         style="stop-color:#368912;stop-opacity:1.0000000;"
         offset="1.0000000"
         id="stop2940" />
    </linearGradient>
    <linearGradient
       id="linearGradient2952">
      <stop
         style="stop-color:#c0d50d;stop-opacity:1;"
         offset="0"
         id="stop2954" />
      <stop
         style="stop-color:#eef2cd;stop-opacity:1.0000000;"
         offset="1.0000000"
         id="stop2956" />
    </linearGradient>
    <inkscape:perspective
       id="perspective34"
       inkscape:persp3d-origin="372.04724 : 350.78739 : 1"
       inkscape:vp_z="744.09448 : 526.18109 : 1"
       inkscape:vp_y="0 : 1000 : 0"
       inkscape:vp_x="0 : 526.18109 : 1"
       sodipodi:type="inkscape:persp3d" />
  </defs>
  <g
     id="g1327">
    <path
       d="M 66.275,1.768 C 24.94,1.768 1.704,23.139 1.704,66.804 L 1.704,516.927 C 1.704,557.771 22.599,579.156 63.896,579.156 L 515.92,579.156 C 557.227,579.156 578.149,558.841 578.149,516.927 L 578.149,66.804 C 578.149,24.203 557.227,1.768 514.628,1.768 C 514.624,1.768 66.133,1.625 66.275,1.768 z "
       style="fill:#111;stroke:#eee;stroke-width:3.40799999"
       id="path1329" />
  </g>
  <path
     style="fill:#ffffff;fill-opacity:1;stroke:none;stroke-width:0.16121733;stroke-linecap:round;stroke-linejoin:round;stroke-miterlimit:4;stroke-opacity:1"
     sodipodi:nodetypes="ccccc"
     id="path3737"
     d="M 387.99683,121.29864 C 377.68526,143.76141 333.1954,189.65193 309.35735,178.70904 C 285.51931,167.76614 291.31554,104.11325 301.62711,81.650486 C 311.93868,59.18771 346.72052,41.016193 361.27297,67.80619 C 391.90518,61.758286 398.3084,98.835878 387.99683,121.29864 z" />
  <path
     style="fill:#ffffff;fill-opacity:1;stroke:none;stroke-width:0.16121733;stroke-linecap:round;stroke-linejoin:round;stroke-miterlimit:4;stroke-opacity:1"
     sodipodi:nodetypes="ccccc"
     id="path3741"
     d="M 402.73084,252.22536 C 378.06071,253.73894 316.6032,236.18162 314.99695,210.0011 C 313.3907,183.82058 372.24098,158.88201 396.91105,157.36842 C 421.58117,155.85484 454.01981,177.93911 437.27242,203.41462 C 457.06442,227.56389 427.40091,250.71175 402.73084,252.22536 z" />
  <path
     style="fill:#ffffff;fill-opacity:1;stroke:none;stroke-width:0.16121733;stroke-linecap:round;stroke-linejoin:round;stroke-miterlimit:4;stroke-opacity:1"
     sodipodi:nodetypes="ccccc"
     id="path3749"
     d="M 169.71491,272.4472 C 183.46515,251.90855 234.68235,213.67132 256.47847,228.26341 C 278.27458,242.85547 262.4366,304.77838 248.68637,325.31702 C 234.93615,345.85565 197.70859,358.26888 187.59841,329.50673 C 156.39435,330.60985 155.96471,292.98586 169.71491,272.4472 z" />
  <path
     style="fill:#ffffff;fill-opacity:1;stroke:none;stroke-width:0.16121733;stroke-linecap:round;stroke-linejoin:round;stroke-miterlimit:4;stroke-opacity:1"
     sodipodi:nodetypes="ccccc"
     id="path3753"
     d="M 177.25987,139.80678 C 201.53335,144.46545 256.70774,176.73109 251.76387,202.49072 C 246.82001,228.25032 183.6208,237.79738 159.34733,233.13872 C 135.07384,228.48008 109.13369,199.03373 131.68152,178.51368 C 118.50467,150.20676 152.98639,135.14817 177.25987,139.80678 z" />
  <path
     style="fill:#ffffff;fill-opacity:1;stroke:none;stroke-width:0.16121733;stroke-linecap:round;stroke-linejoin:round;stroke-miterlimit:4;stroke-opacity:1"
     sodipodi:nodetypes="ccccc"
     id="path3755"
     d="M 277.10264,77.667803 C 288.41835,99.641869 297.08386,162.96797 273.76441,174.97646 C 250.445,186.98493 203.92767,143.15089 192.61198,121.17683 C 181.2963,99.202742 188.45538,60.61873 218.51711,65.695132 C 232.65699,37.856782 265.78693,55.693728 277.10264,77.667803 z" />
  <path
     style="fill:#ffffff;fill-opacity:1;stroke:none;stroke-width:0.25;stroke-linecap:round;stroke-linejoin:round;stroke-miterlimit:4;stroke-opacity:1"
     sodipodi:type="arc"
     sodipodi:ry="58"
     sodipodi:rx="59"
     sodipodi:cy="376.36218"
     sodipodi:cx="239"
     id="path2974"
     d="M 298,376.36218 A 59,58 0 1 1 180,376.36218 A 59,58 0 1 1 298,376.36218 z"
     transform="matrix(0.7053332,0,0,0.7053332,114.12867,-60.986774)" />
  <path
     d="M 274.86005,324.15543 C 266.27238,300.97878 265.29447,237.07002 289.8901,227.95659 C 314.48571,218.84316 355.38695,267.95909 363.97462,291.13572 C 372.56227,314.31238 360.80968,351.75375 331.57785,343.09478 C 314.18905,369.02814 283.44772,347.33208 274.86005,324.15543 z"
     id="path12269"
     sodipodi:nodetypes="ccccc"
     style="fill:#ffffff;fill-opacity:1;stroke:none;stroke-width:0.16121733;stroke-linecap:round;stroke-linejoin:round;stroke-miterlimit:4;stroke-opacity:1" />
  <path
     style="font-size:medium;font-style:normal;font-variant:normal;font-weight:normal;font-stretch:normal;text-indent:0;text-align:start;text-decoration:none;line-height:normal;letter-spacing:normal;word-spacing:normal;text-transform:none;direction:ltr;block-progression:tb;writing-mode:lr-tb;text-anchor:start;color:#000000;fill:#ffffff;fill-opacity:1;stroke:none;stroke-width:34.55872726;marker:none;visibility:visible;display:inline;overflow:visible;enable-background:accumulate;font-family:Bitstream Charter;-inkscape-font-specification:Bitstream Charter"
     d="m 276.375,192.0625 c -4.22066,11.41596 -8.426,22.8376 -12.65625,34.25 3.64033,0.53581 8.31521,5.68528 10.625,1.03125 7.60631,-9.38564 20.91626,-12.91607 32.28125,-8.65625 -1.36395,-5.28108 -1.78523,-10.79477 -0.84375,-16.1875 -9.42273,-4.48305 -18.93139,-8.697 -28.71875,-12.34375 -0.22917,0.63542 -0.45833,1.27083 -0.6875,1.90625 z m 79.21875,65.65625 C 370.9151,275.63926 381.1882,300.0815 375,323.6875 c -2.0368,8.92708 -7.66231,16.58551 -13.75,22.9375 -13.33763,59.51675 -34.66786,116.92182 -56.81044,173.69863 -0.37944,4.78377 9.99398,5.0247 14.03276,7.94124 6.9758,2.84409 13.96999,5.64346 20.93393,8.51638 23.79787,-60.85348 46.64982,-122.54607 60.53125,-186.5 5.14805,-24.69902 8.68472,-52.1996 -3.65625,-75.34375 -2.77011,-4.50612 -5.02568,-10.22697 -9.15625,-13.25 -12.22697,-1.16677 -23.88404,-5.66749 -35.625,-9.09375 1.36458,1.70833 2.72917,3.41667 4.09375,5.125 z"
     id="path12271" />
</svg>

<svg width="580" height="580" viewBox="0 0 580 580" fill="none" xmlns="http://www.w3.org/2000/svg">
<g clip-path="url(#clip0)">
<path d="M66.2751 1.76766C24.9401 1.76766 1.7041 23.1387 1.7041 66.8037V516.927C1.7041 557.771 22.5991 579.156 63.8961 579.156H515.92C557.227 579.156 578.149 558.841 578.149 516.927V66.8037C578.149 24.2027 557.227 1.76766 514.628 1.76766C514.624 1.76766 66.1331 1.62466 66.2751 1.76766Z" fill="#111111" stroke="#EEEEEE" stroke-width="3.408"/>
<path d="M387.997 121.299C377.685 143.761 333.195 189.652 309.357 178.709C285.519 167.766 291.316 104.113 301.627 81.6505C311.939 59.1877 346.721 41.0162 361.273 67.8062C391.905 61.7583 398.308 98.8359 387.997 121.299Z" fill="white"/>
<path d="M402.731 252.225C378.061 253.739 316.603 236.182 314.997 210.001C313.391 183.821 372.241 158.882 396.911 157.368C421.581 155.855 454.02 177.939 437.273 203.415C457.065 227.564 427.401 250.712 402.731 252.225Z" fill="white"/>
<path d="M169.715 272.448C183.465 251.909 234.683 213.672 256.479 228.264C278.275 242.856 262.437 304.779 248.687 325.317C234.936 345.856 197.709 358.269 187.599 329.507C156.395 330.61 155.965 292.986 169.715 272.448Z" fill="white"/>
<path d="M177.26 139.807C201.533 144.466 256.708 176.732 251.764 202.491C246.82 228.251 183.621 237.798 159.347 233.139C135.074 228.481 109.133 199.034 131.681 178.514C118.504 150.207 152.986 135.149 177.26 139.807Z" fill="white"/>
<path d="M277.103 77.6676C288.418 99.6416 297.084 162.968 273.765 174.976C250.445 186.985 203.928 143.151 192.612 121.177C181.296 99.2025 188.455 60.6185 218.517 65.6949C232.657 37.8565 265.787 55.6935 277.103 77.6676Z" fill="white"/>
<path d="M324.318 204.474C324.318 215.324 319.934 225.729 312.13 233.401C304.325 241.073 293.74 245.383 282.704 245.383C271.667 245.383 261.082 241.073 253.278 233.401C245.473 225.729 241.089 215.324 241.089 204.474C241.089 193.624 245.473 183.218 253.278 175.547C261.082 167.875 271.667 163.564 282.704 163.564C293.74 163.564 304.325 167.875 312.13 175.547C319.934 183.218 324.318 193.624 324.318 204.474V204.474Z" fill="white"/>
<path d="M274.86 324.156C266.272 300.979 265.295 237.07 289.89 227.957C314.486 218.843 355.387 267.959 363.975 291.136C372.562 314.313 360.81 351.754 331.578 343.095C314.189 369.028 283.448 347.332 274.86 324.156Z" fill="white"/>
<path d="M276.375 192.062C272.154 203.478 267.949 214.9 263.719 226.312C267.359 226.848 272.034 231.998 274.344 227.344C281.95 217.958 295.26 214.428 306.625 218.688C305.261 213.406 304.84 207.893 305.781 202.5C296.359 198.017 286.85 193.803 277.062 190.156C276.833 190.792 276.604 191.427 276.375 192.062ZM355.594 257.719C370.915 275.639 381.188 300.081 375 323.688C372.963 332.615 367.338 340.273 361.25 346.625C347.912 406.142 326.582 463.547 304.44 520.324C304.06 525.107 314.434 525.348 318.472 528.265C325.448 531.109 332.442 533.908 339.406 536.781C363.204 475.928 386.056 414.235 399.938 350.281C405.086 325.582 408.622 298.082 396.281 274.938C393.511 270.431 391.256 264.711 387.125 261.688C374.898 260.521 363.241 256.02 351.5 252.594C352.865 254.302 354.229 256.01 355.594 257.719Z" fill="white"/>
</g>
<defs>
<clipPath id="clip0">
<path d="M0 0H580V580H0V0Z" fill="white"/>
</clipPath>
</defs>
</svg>
